X:443
T:Haunted Tower,The. RH.444
R:air
S:Rev.R.Harrison’s MS,c1815,Cumbria
O:England
A:Temple Sowerby,Cumbria
Z:vmp.Simon Wilson. Review PJH, 2008.
M:2/4
L:1/16
Q:1/4=90
K:D
d2f2 a2f2|g2e2 e4|f2d2 d2f2|(f4 e4)|\
d2f2 a2f2|g2e2 e4|f2(fa) e2(ef)|d8||!
a2d’2 c’2d’2|(c’2b2) g4|g2b2 a2g2|\
(g4 f4)|a2d’2 c’2d’2|c’2b2 a4|agfe gfed|a8||!
” DC Var. 1st”\
(dB)(fd) (ba).g.f|(ag).f.g e4|\
(gf) .e.d (cd).e.d|(ef)(^df) e4|!
(dA) (fd) (ba).f.e|agfg e4|\
(f2-fg) (e2ef)|dfad’ d4||!
(ag) .f.e (df).a.d’|c’bd’ b bad’a|\
gfed cbag|g2fg fefg|!
agfe dfad’|c’bd’b a4|agfe gfed|a8|]

